modules/framework7-icons/icons/social_linkedin.svg

<?xml version="1.0" encoding="UTF-8"?>
<svg width="50px" height="50px" viewBox="0 0 50 50" version="1.1" xmlns="http://www.w3.org/2000/svg" xmlns:xlink="http://www.w3.org/1999/xlink">
    <!-- Generator: Sketch 40.1 (33804) - http://www.bohemiancoding.com/sketch -->
    <title>social_linkedin</title>
    <desc>Created with Sketch.</desc>
    <defs></defs>
    <g id="Page-1" stroke="none" stroke-width="1" fill="none" fill-rule="evenodd">
        <g id="social_linkedin" fill="#000000">
            <g id="Group-5">
                <path d="M3.68760243,2 C2.74651485,2 2,2.72962362 2,3.60565571 L2,46.3929554 C2,47.2700045 2.7475208,48.0013889 3.68760243,48.0013889 L46.3012861,48.0013889 C47.2476845,48.0013889 48,47.2677936 48,46.3929554 L48,3.60565571 C48,2.7318355 47.2486904,2 46.3012861,2 L3.68760243,2 Z M46.3012861,0 C48.3402317,0 50,1.61393372 50,3.60565571 L50,46.3929554 C50,48.3846774 48.3402317,50.0013889 46.3012861,50.0013889 L3.68760243,50.0013889 C1.65282369,50.0013889 0,48.3846774 0,46.3929554 L0,3.60565571 C0,1.61393372 1.65282369,0 3.68760243,0 L46.3012861,0 Z" id="Fill-4"></path>
                <path d="M14.8323565,43.6067391 L15.8323565,43.6067391 L15.8323565,42.6067391 L15.8323565,18.7449651 L15.8323565,17.7449651 L14.8323565,17.7449651 L7.40853913,17.7449651 L6.40853913,17.7449651 L6.40853913,18.7449651 L6.40853913,42.6067391 L6.40853913,43.6067391 L7.40853913,43.6067391 L14.8323565,43.6067391 Z M8.40803554,41.5999756 L8.40039062,19.7399902 L13.8300781,19.7399902 L13.8322391,41.5999756 L8.40803554,41.5999756 Z" id="Path"></path>
                <path d="M7.81963388,11.183644 C7.81963388,9.35980264 9.29525337,7.88352454 11.1225312,7.88352454 C12.9423348,7.88352454 14.4198728,9.36205198 14.4198728,11.183644 C14.4198728,13.00646 12.9424995,14.4851524 11.1225312,14.4851524 C9.29508861,14.4851524 7.81963388,13.0087098 7.81963388,11.183644 Z M16.4198728,11.183644 C16.4198728,8.25778208 14.0472041,5.88352454 11.1225312,5.88352454 C8.19048404,5.88352454 5.81963388,8.25543288 5.81963388,11.183644 C5.81963388,14.1129798 8.19021936,16.4851524 11.1225312,16.4851524 C14.0474687,16.4851524 16.4198728,14.1106301 16.4198728,11.183644 Z" id="Path"></path>
                <path d="M36.1926442,41.5999756 L36.1926442,31.0022501 C36.1926442,28.7656385 36.0914181,27.6204486 35.6235575,26.4344688 C34.9280028,24.6713069 33.5028368,23.6756854 31.3397594,23.6756854 C27.3031297,23.6756854 25.8910248,26.2390433 25.8910248,30.8050224 C25.8910248,30.8050224 25.8910248,37.6349993 25.8910248,41.5999756 C25.8910248,41.5689049 20.4838746,41.5999756 20.4838746,41.5999756 L20.4838746,19.75 L25.5924053,19.75 L25.5924053,22.0075558 L25.5924053,23.0075558 L26.5924053,23.0075558 L26.695186,23.0075558 L27.2985436,23.0075558 L27.5798484,22.4737879 C28.5861251,20.5644061 30.8689938,19.153282 33.7106586,19.153282 C39.6825192,19.153282 41.608128,22.2064317 41.608128,29.5202645 L41.608128,41.5999756 L36.1926442,41.5999756 Z M43.608128,43.6067391 L43.608128,42.6067391 L43.608128,29.5202645 C43.608128,21.2405596 41.030299,17.153282 33.7106586,17.153282 C30.1183933,17.153282 27.1590289,18.9825727 25.8105236,21.5413236 L26.695186,22.0075558 L26.695186,21.0075558 L26.5924053,21.0075558 L26.5924053,22.0075558 L27.5924053,22.0075558 L27.5924053,18.7449651 L27.5924053,17.7449651 L26.5924053,17.7449651 L19.4838746,17.7449651 L18.4838746,17.7449651 L18.4838746,18.7449651 L18.4838746,42.6067391 L18.4838746,43.6067391 L19.4838746,43.6067391 L26.8910248,43.6067391 L27.8910248,43.6067391 L27.8910248,42.6067391 L27.8910248,30.8050224 C27.8910248,27.1967137 28.7289302,25.6756854 31.3397594,25.6756854 C33.6604457,25.6756854 34.1926442,27.0247556 34.1926442,31.0022501 L34.1926442,42.6067391 L34.1926442,43.6067391 L35.1926442,43.6067391 L42.608128,43.6067391 L43.608128,43.6067391 Z" id="Path"></path>
            </g>
        </g>
    </g>
</svg>

<svg width="50" height="50" viewBox="0 0 50 50" xmlns="http://www.w3.org/2000/svg"><g fill="#000" fill-rule="evenodd"><path d="M3.688 2C2.747 2 2 2.73 2 3.606v42.787c0 .877.748 1.608 1.688 1.608H46.3c.947 0 1.699-.733 1.699-1.608V3.606C48 2.732 47.249 2 46.301 2H3.688zM46.3 0C48.341 0 50 1.614 50 3.606v42.787c0 1.992-1.66 3.608-3.699 3.608H3.688C1.653 50.001 0 48.385 0 46.393V3.606C0 1.614 1.653 0 3.688 0H46.3z"/><path d="M14.832 43.607h1V17.745H6.41v25.862h8.423zM8.408 41.6L8.4 19.74h5.43l.002 21.86H8.408zM7.82 11.184a3.3 3.3 0 1 1 6.6 0 3.3 3.3 0 0 1-6.6 0zm8.6 0a5.3 5.3 0 1 0-5.297 5.301 5.3 5.3 0 0 0 5.297-5.301zM36.193 41.6V31.002c0-2.236-.102-3.382-.57-4.568-.695-1.763-2.12-2.758-4.283-2.758-4.037 0-5.449 2.563-5.449 7.129V41.6c0-.031-5.407 0-5.407 0V19.75h5.108v3.258H27.3l.28-.534c1.007-1.91 3.29-3.32 6.132-3.32 5.972 0 7.897 3.052 7.897 10.366V41.6h-5.415zm7.415 2.007V29.52c0-8.28-2.578-12.367-9.897-12.367-3.593 0-6.552 1.83-7.9 4.388l.884.467v-1h-.103v1h1v-4.263h-9.108v25.862h9.407V30.805c0-3.608.838-5.13 3.449-5.13 2.32 0 2.853 1.35 2.853 5.327v12.605h9.415z"/></g></svg>
